N1 (File: /home/nkp/git/linuxcnc/configs/G71_sim_config/ngc/111.dxf)
N2 G21  G90 G64 P0.01 G18 G40 G49 G7
N3 T1
N4 F555
N5 G1 Z -10.0000000 X  60.0000000
N6 G1 Z -10.0000000 X  40.0000000
N7 G1 Z -20.0000000 X  40.0000000
N8 G1 Z -20.0000000 X  20.0000000
N9 G1 Z -30.0000000 X  20.0000000
N10 G1 Z -30.0000000 X  40.0000000
N11 G1 Z -40.0000000 X  40.0000000
N12 G1 Z -40.0000000 X  20.0000000
N13 G1 Z -50.0000000 X  20.0000000
N14 G1 Z -50.0000000 X  40.0000000
N15 G1 Z -60.0000000 X  40.0000000
N16 G1 Z -60.0000000 X  60.0000000
N17 
